X: 28161
T: Mrs MacPherson Of Inveran
R: reel
M: 4/4
K: Dmajor
|:f2af dfAd|f2af feef|e2ge ceAc|1 e2fg fddg:|2 e2fg fddA||
d2Ad dfAd|d2Ad dccd|c2Ac ceAc|c2Ac eddA|
d2Ad dfAd|d2Ad dccd|cAAB cdef|gfea fddg||
|:f2gf affg|affg feef|e2fe geef|1 geef eddg:|2 geef eddA||
d2Ad faef|dfed dccd|c2Ac egdf|ceBc eddA|
d2Ad faef|dfed dccd|c2Bc Aceg|face eddg||
|:f2ed affg|a2gf feef|e2dc geef|1 g2fe eddg:|2 g2fe eddA||
d2Ad f2df|gfed dccd|c2Ac e2ce|gedc eddA|
d2Ad f2df|gfed dccd|cAdB ecfd|gedc edd2||

